packages/icons/web/flag_sk_small.svg

<svg width="24" height="24" viewBox="0 0 24 24" fill="none" xmlns="http://www.w3.org/2000/svg">
<path fill-rule="evenodd" clip-rule="evenodd" d="M5.5 6H18.5C19.6046 6 20.5 6.89543 20.5 8V16C20.5 17.1046 19.6046 18 18.5 18H5.5C4.39543 18 3.5 17.1046 3.5 16V8C3.5 6.89543 4.39543 6 5.5 6ZM5.5 6.5C4.67157 6.5 4 7.17157 4 8V16C4 16.8284 4.67157 17.5 5.5 17.5H18.5C19.3284 17.5 20 16.8284 20 16V8C20 7.17157 19.3284 6.5 18.5 6.5H5.5Z" fill="#D8DDE1"/>
<g clip-path="url(#clip0)">
<mask id="mask0" mask-type="alpha" maskUnits="userSpaceOnUse" x="4" y="6" width="16" height="12">
<path d="M18.48 6.5H5.52C4.68053 6.5 4 7.18803 4 8.03676V15.9632C4 16.812 4.68053 17.5 5.52 17.5H18.48C19.3195 17.5 20 16.812 20 15.9632V8.03676C20 7.18803 19.3195 6.5 18.48 6.5Z" fill="white"/>
</mask>
<g mask="url(#mask0)">
<path fill-rule="evenodd" clip-rule="evenodd" d="M4 17.5H20V6.5H4V17.5Z" fill="#EE1C25"/>
<path fill-rule="evenodd" clip-rule="evenodd" d="M4 13.8334H20V6.5H4V13.8334Z" fill="#0B4EA2"/>
<path fill-rule="evenodd" clip-rule="evenodd" d="M4 10.1667H20V6.5H4V10.1667Z" fill="white"/>
<path fill-rule="evenodd" clip-rule="evenodd" d="M9.62256 14.9977C8.66644 14.5228 7.29883 13.5802 7.29883 11.7154C7.29883 9.85076 7.38527 9.00269 7.38527 9.00269H11.8598C11.8598 9.00269 11.9464 9.85076 11.9464 11.7154C11.9464 13.5801 10.5788 14.5228 9.62248 14.9978" fill="white"/>
<path fill-rule="evenodd" clip-rule="evenodd" d="M9.62212 14.75C8.74492 14.3143 7.49023 13.4495 7.49023 11.7388C7.49023 10.0281 7.56954 9.25 7.56954 9.25H11.6747C11.6747 9.25 11.7541 10.0281 11.7541 11.7388C11.7541 13.4495 10.4993 14.3143 9.62212 14.75Z" fill="#EE1C25"/>
<path fill-rule="evenodd" clip-rule="evenodd" d="M9.80991 11.2901C10.0474 11.2941 10.5108 11.3037 10.9235 11.1613C10.9235 11.1613 10.9126 11.3135 10.9126 11.4909C10.9126 11.6683 10.9235 11.8206 10.9235 11.8206C10.545 11.69 10.0776 11.6873 9.80991 11.6908V12.6356H9.43477V11.6907C9.16712 11.6873 8.69978 11.6899 8.32129 11.8206C8.32129 11.8206 8.33216 11.6684 8.33216 11.4909C8.33216 11.3136 8.32129 11.1612 8.32129 11.1612C8.73387 11.3036 9.19725 11.294 9.43477 11.2902V10.6966C9.2183 10.6947 8.90638 10.7054 8.55368 10.8271C8.55368 10.8271 8.56455 10.6748 8.56455 10.4974C8.56455 10.32 8.55368 10.1678 8.55368 10.1678C8.90583 10.2893 9.21737 10.3001 9.43383 10.2982C9.42265 9.92235 9.31655 9.44873 9.31655 9.44873C9.31655 9.44873 9.53504 9.46635 9.62234 9.46635C9.7098 9.46635 9.92813 9.44873 9.92813 9.44873C9.92813 9.44873 9.82203 9.92235 9.81084 10.2982C10.0273 10.3001 10.3388 10.2893 10.6911 10.1677C10.6911 10.1677 10.6802 10.3199 10.6802 10.4974C10.6802 10.6748 10.6911 10.827 10.6911 10.827C10.3384 10.7053 10.0264 10.6946 9.80991 10.6966V11.2901Z" fill="white"/>
<path fill-rule="evenodd" clip-rule="evenodd" d="M9.62187 12.5337C9.18008 12.5337 8.9435 13.1657 8.9435 13.1657C8.9435 13.1657 8.81224 12.866 8.45185 12.866C8.20797 12.866 8.02832 13.0896 7.91406 13.2968C8.35771 14.0247 9.06552 14.474 9.62187 14.7503C10.1782 14.474 10.8866 14.0249 11.3302 13.2969C11.216 13.0896 11.0362 12.8659 10.7924 12.8659C10.432 12.8659 10.3002 13.1657 10.3002 13.1657C10.3002 13.1657 10.0636 12.5337 9.62187 12.5337Z" fill="#0B4EA2"/>
</g>
</g>
<defs>
<clipPath id="clip0">
<rect x="4" y="6.5" width="16" height="11" fill="white"/>
</clipPath>
</defs>
</svg>

<svg width="24" height="24" fill="none" xmlns="http://www.w3.org/2000/svg">
    <path fill-rule="evenodd" clip-rule="evenodd" d="M5.5 6h13a2 2 0 012 2v8a2 2 0 01-2 2h-13a2 2 0 01-2-2V8a2 2 0 012-2zm0 .5A1.5 1.5 0 004 8v8a1.5 1.5 0 001.5 1.5h13A1.5 1.5 0 0020 16V8a1.5 1.5 0 00-1.5-1.5h-13z" fill="#D8DDE1"/>
    <g clip-path="url(#clip0)">
        <mask id="a" maskUnits="userSpaceOnUse" x="4" y="6" width="16" height="12">
            <path d="M18.48 6.5H5.52C4.68 6.5 4 7.188 4 8.037v7.926c0 .849.68 1.537 1.52 1.537h12.96c.84 0 1.52-.688 1.52-1.537V8.037c0-.849-.68-1.537-1.52-1.537z" fill="#fff"/>
        </mask>
        <g mask="url(#a)" fill-rule="evenodd" clip-rule="evenodd">
            <path d="M4 17.5h16v-11H4v11z" fill="#EE1C25"/>
            <path d="M4 13.833h16V6.5H4v7.333z" fill="#0B4EA2"/>
            <path d="M4 10.167h16V6.5H4v3.667z" fill="#fff"/>
            <path d="M9.623 14.998c-.957-.475-2.324-1.418-2.324-3.283 0-1.864.086-2.712.086-2.712h4.475s.086.848.086 2.712c0 1.865-1.367 2.808-2.324 3.283" fill="#fff"/>
            <path d="M9.622 14.75c-.877-.436-2.132-1.3-2.132-3.011 0-1.71.08-2.489.08-2.489h4.105s.08.778.08 2.489c0 1.71-1.256 2.575-2.133 3.011z" fill="#EE1C25"/>
            <path d="M9.81 11.29c.237.004.7.014 1.114-.129 0 0-.011.152-.011.33 0 .177.01.33.01.33-.378-.131-.845-.134-1.113-.13v.945h-.375v-.945c-.268-.004-.735-.001-1.114.13 0 0 .011-.153.011-.33 0-.177-.01-.33-.01-.33.412.143.875.133 1.113.13v-.594a2.562 2.562 0 00-.881.13s.01-.152.01-.33c0-.177-.01-.33-.01-.33.352.122.663.133.88.131-.011-.376-.117-.85-.117-.85s.218.018.305.018c.088 0 .306-.017.306-.017s-.106.473-.117.85c.216.001.528-.01.88-.131 0 0-.01.152-.01.33 0 .177.01.329.01.329a2.56 2.56 0 00-.881-.13v.593z" fill="#fff"/>
            <path d="M9.622 12.534c-.442 0-.678.632-.678.632s-.132-.3-.492-.3c-.244 0-.424.224-.538.43.444.729 1.152 1.178 1.708 1.454.556-.276 1.265-.725 1.708-1.453-.114-.207-.294-.431-.538-.431-.36 0-.492.3-.492.3s-.236-.632-.678-.632z" fill="#0B4EA2"/>
        </g>
    </g>
    <defs>
        <clipPath id="clip0">
            <path fill="#fff" d="M4 6.5h16v11H4z"/>
        </clipPath>
    </defs>
</svg>
